svg/300/outlined/tv_with_assistant.svg

<svg xmlns="http://www.w3.org/2000/svg" width="48" height="48" viewBox="0 -960 960 960"><path d="M420-464.616q14.692 0 25.038-10.346T455.384-500q0-14.692-10.346-25.038T420-535.384q-14.692 0-25.038 10.346T384.616-500q0 14.692 10.346 25.038T420-464.616Zm120 0q14.692 0 25.038-10.346T575.384-500q0-14.692-10.346-25.038T540-535.384q-14.692 0-25.038 10.346T504.616-500q0 14.692 10.346 25.038T540-464.616Zm-240 0q14.692 0 25.038-10.346T335.384-500q0-14.692-10.346-25.038T300-535.384q-14.692 0-25.038 10.346T264.616-500q0 14.692 10.346 25.038T300-464.616Zm360 0q14.692 0 25.038-10.346T695.384-500q0-14.692-10.346-25.038T660-535.384q-14.692 0-25.038 10.346T624.616-500q0 14.692 10.346 25.038T660-464.616ZM179.616-150.771v-69.23h-21.922q-23.596 0-40.645-17.048-17.048-17.049-17.048-40.645v-444.612q0-23.596 17.048-40.645 17.049-17.048 40.645-17.048h644.612q23.596 0 40.645 17.048 17.048 17.049 17.048 40.645v444.612q0 23.596-17.048 40.645-17.049 17.048-40.645 17.048h-21.922v69.23h-17.615l-23.129-69.23H221.738l-24.507 69.23h-17.615Zm-21.922-114.614h644.612q5.385 0 8.847-3.462 3.462-3.462 3.462-8.847v-444.612q0-5.385-3.462-8.847-3.462-3.462-8.847-3.462H157.694q-5.385 0-8.847 3.462-3.462 3.462-3.462 8.847v444.612q0 5.385 3.462 8.847 3.462 3.462 8.847 3.462ZM480-500Z"/></svg>

<svg xmlns="http://www.w3.org/2000/svg" width="48" height="48" viewBox="0 -960 960 960"><path d="M420-464.62q14.69 0 25.04-10.34 10.34-10.35 10.34-25.04t-10.34-25.04q-10.35-10.34-25.04-10.34t-25.04 10.34q-10.34 10.35-10.34 25.04t10.34 25.04q10.35 10.34 25.04 10.34Zm120 0q14.69 0 25.04-10.34 10.34-10.35 10.34-25.04t-10.34-25.04q-10.35-10.34-25.04-10.34t-25.04 10.34q-10.34 10.35-10.34 25.04t10.34 25.04q10.35 10.34 25.04 10.34Zm-240 0q14.69 0 25.04-10.34 10.34-10.35 10.34-25.04t-10.34-25.04q-10.35-10.34-25.04-10.34t-25.04 10.34q-10.34 10.35-10.34 25.04t10.34 25.04q10.35 10.34 25.04 10.34Zm360 0q14.69 0 25.04-10.34 10.34-10.35 10.34-25.04t-10.34-25.04q-10.35-10.34-25.04-10.34t-25.04 10.34q-10.34 10.35-10.34 25.04t10.34 25.04q10.35 10.34 25.04 10.34ZM179.62-150.77V-220h-21.93q-23.59 0-40.64-17.05T100-277.69v-444.62q0-23.59 17.05-40.64T157.69-780h644.62q23.59 0 40.64 17.05T860-722.31v444.62q0 23.59-17.05 40.64T802.31-220h-21.93v69.23h-17.61L739.64-220h-517.9l-24.51 69.23h-17.61Zm-21.93-114.62h644.62q5.38 0 8.84-3.46t3.46-8.84v-444.62q0-5.38-3.46-8.84t-8.84-3.46H157.69q-5.38 0-8.84 3.46t-3.46 8.84v444.62q0 5.38 3.46 8.84t8.84 3.46ZM480-500Z"/></svg>
